X: 27629
T: Moon Rise, The
R: slip jig
M: 9/8
K: Eminor
|:EGA cBG D2E|EGA B3 d2B|EGA cBG D2E|dcB cdB G2A:|
|:E2e cde dBG|E2e cde d2B|E2e cde dBG|A2B cdB G2A:|

